X:1
T: Lady Maria Dundas
C:
R:Reel
Q: 232
K:F
M:4/4
L:1/8
|:f|c3/2F1/2 F1/2F1/2F c2 Ac|df ef dA Af|c3/2F1/2 F1/2F1/2F c2 Ac|df cA G1/2G1/2G Gf|
c3/2F1/2 F1/2F1/2F c2 Ac|df ef dA Af|c3/2F1/2 F1/2F1/2F c2 Ac|df cA G1/2G1/2G Gg|
f1/2g1/2a ga fd df|cf Af cA Ac|f1/2g1/2a ga fd df|cf cA G1/2G1/2G Gg|
f1/2g1/2a ga fd df|cf Af cA Ac|fa ga fg df|cd Af G1/2G1/2G G:|
